!!!COM: Balsamino, Simone
!!!CDT:
!!!PTL: Novellette a sei voci
!!!PPP: Venice
!!!PPR: Amadino
!!!PDT: 1594
!!!PUB-format:
!!!RISM: B 785
!!!OTL: Qual ardir mi bisogna, e 'ncotra a cui?
!!!AGN: Madrigal
!!!SCT: Tam2031052a
!!!SCA: Tam2031052a
!!!original-voices: 6
!!!extant-voices: 6
!!!complete: Y
!!!final: (F)F
**kern	**text	**kern	**text	**kern	**text	**kern	**text	**kern	**text	**kern	**text
*part6	*part6	*part5	*part5	*part4	*part4	*part3	*part3	*part2	*part2	*part1	*part1
*staff6	*staff6	*staff5	*staff5	*staff4	*staff4	*staff3	*staff3	*staff2	*staff2	*staff1	*staff1
*I"Basso	*	*I"Quinto	*	*I"Tenore	*	*I"Alto	*	*I"Sesto	*	*I"Canto	*
*I'B	*	*I'V	*	*I'T	*	*I'A	*	*I'VI	*	*I'C	*
*oclefF4	*	*oclefC4	*	*oclefC4	*	*oclefC3	*	*oclefC1	*	*oclefC1	*
*clefF4	*	*clefGv2	*	*clefGv2	*	*clefG2	*	*clefG2	*	*clefG2	*
*k[b-]	*	*k[b-]	*	*k[b-]	*	*k[b-]	*	*k[b-]	*	*k[b-]	*
*omet(C)	*	*omet(C)	*	*omet(C)	*	*omet(C)	*	*omet(C)	*	*omet(C)	*
*M4/2	*	*M4/2	*	*M4/2	*	*M4/2	*	*M4/2	*	*M4/2	*
=1	=1	=1	=1	=1	=1	=1	=1	=1	=1	=1	=1
!!LO:TX:a:t=[Terza parte]
1r	.	0r	.	1r	.	0r	.	0r	.	2a	Qual
.	.	.	.	.	.	.	.	.	.	4g	ar-
.	.	.	.	.	.	.	.	.	.	2a	-dir
2A	Qual	.	.	2c	Qual	.	.	.	.	.	.
.	.	.	.	.	.	.	.	.	.	8g	mi
.	.	.	.	.	.	.	.	.	.	8f	bi-
4G	ar-	.	.	4B-y	ar-	.	.	.	.	[2e	-so-
[4A	-dir	.	.	[4c	-dir	.	.	.	.	.	.
=2	=2	=2	=2	=2	=2	=2	=2	=2	=2	=2	=2
4A]	.	0r	.	4c]	.	0r	.	0r	.	2e]	.
8G	mi	.	.	8B-y	mi	.	.	.	.	.	.
8F	bi-	.	.	8A	bi-	.	.	.	.	.	.
4E	-so-	.	.	4G	-so-	.	.	.	.	2g	-gna, e 'n-
4G	-gna, e 'n-	.	.	4B-y	-gna, e 'n-	.	.	.	.	.	.
4F	-con-	.	.	4c	-con-	.	.	.	.	4a	-con-
4G	-tra a	.	.	4B-y	-tra a	.	.	.	.	4g	-tra a
2D	cu-	.	.	2A	cu-	.	.	.	.	2f#X	cu-
=3	=3	=3	=3	=3	=3	=3	=3	=3	=3	=3	=3
4G	-i,	0r	.	4B-y	-i,	0r	.	0r	.	4g	-i,
4G	e 'n-	.	.	4B-y	e 'n-	.	.	.	.	4g	e 'n-
4F	-con-	.	.	4c	-con-	.	.	.	.	4a	-con-
4G	-tra a	.	.	4B-y	-tra a	.	.	.	.	4g	-tra a
2D	cu-	.	.	2A	cu-	.	.	.	.	2f#X	cu-
2G	-i?	.	.	2B-y	-i?	.	.	.	.	2g	-i?
=4	=4	=4	=4	=4	=4	=4	=4	=4	=4	=4	=4
0r	.	2c	Se	0r	.	2e	Se	2g	Se	0r	.
.	.	4c	la	.	.	4e	la	4g	la	.	.
.	.	4c	tua	.	.	4e	tua	4g	tua	.	.
.	.	4c	Don-	.	.	4e	Don-	4g	Don-	.	.
.	.	4c	-na	.	.	4e	-na	4g	-na	.	.
.	.	[2c	fos-	.	.	[2e	fos-	[2g	fos-	.	.
=5	=5	=5	=5	=5	=5	=5	=5	=5	=5	=5	=5
0r	.	4c]	.	0r	.	4e]	.	4g]	.	0r	.
.	.	4A	-se in	.	.	4e	-se in	4cc	-se in	.	.
.	.	4B-y	mez-	.	.	4d	mez-	4b-y	mez-	.	.
.	.	4c	-zo un	.	.	4e	-zo un	4g	-zo un	.	.
.	.	2F	bo-	.	.	2c	bo-	2a	bo-	.	.
.	.	4F	-sco	.	.	4c	-sco	4a	-sco	.	.
.	.	4B-y	Che	.	.	4d	Che,	4f	Che,	.	.
=6	=6	=6	=6	=6	=6	=6	=6	=6	=6	=6	=6
0r	.	4B-y	cin-	0r	.	4d	cin-	4f	cin-	0r	.
.	.	4B-y	-to in-	.	.	4d	-to in-	4f	-to in-	.	.
.	.	4B-y	-tor-	.	.	4d	-tor-	4f	-tor-	.	.
.	.	4B-y	-no	.	.	4d	-no	4f	-no	.	.
.	.	2.B-y	d'al-	.	.	2.d	d'al-	2f	d'al-	.	.
.	.	.	.	.	.	.	.	2b-y	-tis-	.	.
.	.	4B-y	-tis-	.	.	4d	-tis-	.	.	.	.
=7	=7	=7	=7	=7	=7	=7	=7	=7	=7	=7	=7
0r	.	4c	-si-	0r	.	4e	-si-	4g	-si-	0r	.
.	.	4c	-me	.	.	4e	-me	4g	-me	.	.
.	.	1G	ru-	.	.	1d	ru-	1g	ru-	.	.
.	.	4G	-pi,	.	.	4d	-pi,	4g	-pi,	.	.
.	.	4B-y	Des-	.	.	4d	Des-	4f	Des-	.	.
=8	=8	=8	=8	=8	=8	=8	=8	=8	=8	=8	=8
0r	.	4B-y	-se al-	0r	.	4d	-se al-	4f	-se al-	0r	.
.	.	4B-y	-ber-	.	.	4d	-ber-	4f	-ber-	.	.
.	.	4B-y	-go a	.	.	4d	-go a	4f	-go a	.	.
.	.	4B-y	le	.	.	4d	le	4f	le	.	.
.	.	2.B-y	ti-	.	.	2.d	ti-	2f	ti-	.	.
.	.	.	.	.	.	.	.	2b-y	-gri e	.	.
.	.	4B-y	-gri e	.	.	4d	-gri e	.	.	.	.
=9	=9	=9	=9	=9	=9	=9	=9	=9	=9	=9	=9
0r	.	4c	a	0r	.	4e	a	4g	a	0r	.
.	.	4c	le-	.	.	4e	le-	4g	le-	.	.
.	.	1G	-o-	.	.	1d	-o-	1b-y	-o-	.	.
.	.	4G	-ni,	.	.	4d	-ni,	4b-y	-ni,	.	.
.	.	4c	V'an-	.	.	4e	V'an-	4cc	V'an-	.	.
=10	=10	=10	=10	=10	=10	=10	=10	=10	=10	=10	=10
1r	.	4.d	-dre-	1r	.	4.f	-dre-	4.a	-dre-	1r	.
.	.	8B-y	-sti	.	.	8d	-sti	8b-y	-sti	.	.
.	.	4.c	tu,	.	.	4.e	tu,	4.g	tu,	.	.
.	.	8A	V'an-	.	.	8c	V'an-	8a	V'an-	.	.
2r	.	4.B-y	-dre-	2r	.	4.d	-dre-	4.f	-dre-	2r	.
.	.	8G	-sti	.	.	8d	-sti	8g	-sti	.	.
2C	V'an-	2c	tu?	2c	V'an-	2e	tu?	2g	tu?	2g	V'an-
=11	=11	=11	=11	=11	=11	=11	=11	=11	=11	=11	=11
4.F	-drei	0r	.	4.c	-drei	0r	.	0r	.	4.a	-drei
8A	si-	.	.	8c	si-	.	.	.	.	8cc	si-
4G	-cur	.	.	4d	-cur	.	.	.	.	4b-y	-cur
4G	e	.	.	4B-y	e	.	.	.	.	4g	e
2F	bal-	.	.	2c	bal-	.	.	.	.	2a	bal-
4.F	-do,	.	.	4.c	-do,	.	.	.	.	4.a	-do,
8A	si-	.	.	8c	si-	.	.	.	.	8cc	si-
=12	=12	=12	=12	=12	=12	=12	=12	=12	=12	=12	=12
4.G	-cur	0r	.	4d	-cur	0r	.	0r	.	4b-y	-cur
.	.	.	.	4B-y	e	.	.	.	.	4g	e
8G	e	.	.	.	.	.	.	.	.	.	.
2F	bal-	.	.	2c	bal-	.	.	.	.	2a	bal-
4F	-do	.	.	4c	-do	.	.	.	.	4a	-do
4F	Più	.	.	4A	Più	.	.	.	.	4cc	Più
[2F	che	.	.	[2A	che	.	.	.	.	[2cc	che
=13	=13	=13	=13	=13	=13	=13	=13	=13	=13	=13	=13
4F]	.	0r	.	4A]	.	0r	.	0r	.	4cc]	.
4F	di	.	.	4c	di	.	.	.	.	4a	di
4BB-y	fe-	.	.	4B-y	fe-	.	.	.	.	4b-y	fe-
4F	-sta	.	.	4A	-sta	.	.	.	.	4cc	-sta
2.BB-y	vil-	.	.	2.F	vil-	.	.	.	.	2.dd	vil-
4F	-la-	.	.	4A	-la-	.	.	.	.	4cc	-la-
=14	=14	=14	=14	=14	=14	=14	=14	=14	=14	=14	=14
4G	-nel-	0r	.	4G	-nel-	0r	.	0r	.	4b-y	-nel-
4F	-la al	.	.	4D	-la al	.	.	.	.	4a	-la al
8CL	bal-	.	.	8EL	bal-	.	.	.	.	8gL	bal-
8DJ	.	.	.	8DJ	.	.	.	.	.	8fJ	.
4C	.	.	.	4E	.	.	.	.	.	4g	.
2.F	-lo,	.	.	2.F	-lo,	.	.	.	.	2.f	-lo,
4F	Più	.	.	4c	Più	.	.	.	.	4a	Più
=15	=15	=15	=15	=15	=15	=15	=15	=15	=15	=15	=15
2.F	che	0r	.	2.A	che	0r	.	0r	.	2.cc	che
4F	di	.	.	4c	di	.	.	.	.	4a	di
4BB-y	fe-	.	.	4B-y	fe-	.	.	.	.	4b-y	fe-
4F	-sta	.	.	4A	-sta	.	.	.	.	4cc	-sta
[2BB-y	vil-	.	.	[2F	vil-	.	.	.	.	[2dd	vil-
=16	=16	=16	=16	=16	=16	=16	=16	=16	=16	=16	=16
4BB-y]	.	0r	.	4F]	.	0r	.	0r	.	4dd]	.
4F	-la-	.	.	4A	-la-	.	.	.	.	4cc	-la-
4G	-nel-	.	.	4G	-nel-	.	.	.	.	4b-y	-nel-
4F	-la al	.	.	4D	-la al	.	.	.	.	4a	-la al
8CL	bal-	.	.	8EL	bal-	.	.	.	.	8gL	bal-
8DJ	.	.	.	8DJ	.	.	.	.	.	8fJ	.
4C	.	.	.	4E	.	.	.	.	.	4g	.
2F	-lo.	.	.	2F	-lo.	.	.	.	.	2f	-lo.
=17	=17	=17	=17	=17	=17	=17	=17	=17	=17	=17	=17
0r	.	1r	.	0r	.	1r	.	2cc	E	0r	.
.	.	.	.	.	.	.	.	4b-y	s'el-	.	.
.	.	.	.	.	.	.	.	4a	-la	.	.
.	.	2c	E	.	.	2e	E	2g	fos-	.	.
.	.	4B-y	s'el-	.	.	4d	s'el-	2g	-se	.	.
.	.	4A	-la	.	.	4c	-la	.	.	.	.
=18	=18	=18	=18	=18	=18	=18	=18	=18	=18	=18	=18
0r	.	2G	fos-	0r	.	2d	fos-	4.b-y	tra	0r	.
.	.	.	.	.	.	.	.	8b-y	la-	.	.
.	.	2G	-se	.	.	2d	-se	4b-y	-dro-	.	.
.	.	.	.	.	.	.	.	4a	-ni e	.	.
.	.	4.c	tra	.	.	4.e	tra	1g	ar-	.	.
.	.	8c	la-	.	.	8e	la-	.	.	.	.
.	.	4c	-dro-	.	.	4e	-dro-	.	.	.	.
.	.	4B-y	-ni e	.	.	4d	-ni e	.	.	.	.
=19	=19	=19	=19	=19	=19	=19	=19	=19	=19	=19	=19
0r	.	2A	ar-	0r	.	2c#X	ar-	2a	-mi,	0r	.
.	.	1G	-mi,	.	.	1d	-mi,	4.b-y	tra	.	.
.	.	.	.	.	.	.	.	8b-y	la-	.	.
.	.	.	.	.	.	.	.	4b-y	-dro-	.	.
.	.	.	.	.	.	.	.	4a	-ni e	.	.
.	.	[4.c	tra	.	.	[4.e	tra	[2g	ar-	.	.
.	.	8c]	la-	.	.	8e]	la-	.	.	.	.
=20	=20	=20	=20	=20	=20	=20	=20	=20	=20	=20	=20
0r	.	4c	-dro-	0r	.	4e	-dro-	2g]	.	0r	.
.	.	4B-y	-ni e	.	.	4d	-ni e	.	.	.	.
.	.	2c	ar-	.	.	2e	ar-	2.g	-mi,	.	.
.	.	4c	-mi,	.	.	4e	-mi,	.	.	.	.
.	.	4c	V'an-	.	.	4e	V'an-	4cc	V'an-	.	.
.	.	4.d	-dre-	.	.	4.f	-dre-	4.a	-dre-	.	.
.	.	8B-y	-sti	.	.	8d	-sti	8b-y	-sti	.	.
=21	=21	=21	=21	=21	=21	=21	=21	=21	=21	=21	=21
1r	.	4.c	tu,	1r	.	4.e	tu,	4.g	tu,	1r	.
.	.	8A	V'an-	.	.	8c	V'an-	8a	V'an-	.	.
.	.	4.B-y	-dre-	.	.	4.d	-dre-	4.f	-dre-	.	.
.	.	8G	-sti	.	.	8d	-sti	8g	-sti	.	.
2r	.	2c	tu?	2r	.	2e	tu?	2g	tu?	2r	.
2C	V'an-	2r	.	2c	V'an-	2r	.	2r	.	2g	V'an-
=22	=22	=22	=22	=22	=22	=22	=22	=22	=22	=22	=22
4.F	-drei	0r	.	4.c	-drei	0r	.	0r	.	4.a	-drei
8A	più	.	.	8c	più	.	.	.	.	8cc	più
4G	lie-	.	.	4d	lie-	.	.	.	.	4.b-y	lie-
4G	-to e	.	.	4B-y	-to e	.	.	.	.	.	.
.	.	.	.	.	.	.	.	.	.	8g	-to e
2F	pron-	.	.	2c	pron-	.	.	.	.	2a	pron-
4.F	-to,	.	.	4.c	-to,	.	.	.	.	4.a	-to,
8A	più	.	.	8c	più	.	.	.	.	8cc	più
=23	=23	=23	=23	=23	=23	=23	=23	=23	=23	=23	=23
4.G	lie-	0r	.	4d	lie-	0r	.	0r	.	4.b-y	lie-
.	.	.	.	4B-y	-to e	.	.	.	.	.	.
8G	-to e	.	.	.	.	.	.	.	.	8g	-to e
2F	pron-	.	.	2c	pron-	.	.	.	.	2a	pron-
4F	-to	.	.	4c	-to	.	.	.	.	4a	-to
4F	Che	.	.	4A	Che	.	.	.	.	4cc	Che
[2F	l'as-	.	.	[2A	l'as-	.	.	.	.	[2cc	l'as-
=24	=24	=24	=24	=24	=24	=24	=24	=24	=24	=24	=24
4F]	.	0r	.	4A]	.	0r	.	0r	.	4cc]	.
4F	-se-	.	.	4c	-se-	.	.	.	.	4a	-se-
4BB-y	-ta-	.	.	4B-y	-ta-	.	.	.	.	4b-y	-ta-
4F	-to	.	.	4A	-to	.	.	.	.	4cc	-to
2.BB-y	cer-	.	.	2.F	cer-	.	.	.	.	2.dd	cer-
4F	-vo a	.	.	4A	-vo a	.	.	.	.	4cc	-vo a
=25	=25	=25	=25	=25	=25	=25	=25	=25	=25	=25	=25
4G	la	0r	.	4G	la	0r	.	0r	.	4b-y	la
4F	fon-	.	.	4D	fon-	.	.	.	.	4a	fon-
8CL	-ta-	.	.	8EL	-ta-	.	.	.	.	8gL	-ta-
8DJ	.	.	.	8DJ	.	.	.	.	.	8fJ	.
4C	.	.	.	4E	.	.	.	.	.	4g	.
4F	-na,	.	.	4F	-na,	.	.	.	.	4f	-na,
4F	a	.	.	4A	a	.	.	.	.	4cc	a
4G	la	.	.	4G	la	.	.	.	.	4b-y	la
4F	fon-	.	.	4D	fon-	.	.	.	.	4a	fon-
=26	=26	=26	=26	=26	=26	=26	=26	=26	=26	=26	=26
8CL	-ta-	2r	.	8EL	-ta-	2r	.	2r	.	8gL	-ta-
8DJ	.	.	.	8DJ	.	.	.	.	.	8fJ	.
4C	.	.	.	4E	.	.	.	.	.	4g	.
2FF	-na,	2F	V'an-	2F	-na,	2c	V'an-	2a	V'an-	2f	-na,
2r	.	4.F	-drei	2r	.	4.c	-drei	4.a	-drei	1r	.
.	.	8A	più	.	.	8c	più	8cc	più	.	.
4r	.	4G	lie-	4r	.	4d	lie-	4b-y	lie-	.	.
4C	più	4G	-to e	4c	più	4e	-to e	4g	-to e	.	.
=27	=27	=27	=27	=27	=27	=27	=27	=27	=27	=27	=27
8FFL	lie-	2F	pron-	8AL	lie-	2f	pron-	2a	pron-	0r	.
8GG	.	.	.	8B-y	.	.	.	.	.	.	.
8AA	.	.	.	8c	.	.	.	.	.	.	.
8BB-yJ	.	.	.	8dJ	.	.	.	.	.	.	.
2C	.	4.E	-to,	2e	.	4.c	-to,	4.g	-to,	.	.
.	.	8G	più	.	.	8c	più	8cc	più	.	.
4GG	-to,	4G	lie-	4d	-to,	4d	lie-	4b-y	lie-	.	.
4C	più	4G	-to e	4c	più	4e	-to e	4g	-to e	.	.
8FFL	lie-	2F	pron-	8AL	lie-	2f	pron-	2a	pron-	.	.
8GG	.	.	.	8B-y	.	.	.	.	.	.	.
8AA	.	.	.	8c	.	.	.	.	.	.	.
8BB-J	.	.	.	8dJ	.	.	.	.	.	.	.
=28	=28	=28	=28	=28	=28	=28	=28	=28	=28	=28	=28
4C	.	4E	-to,	4e	.	4c	-to,	8gL	-to,	4r	.
.	.	.	.	.	.	.	.	8a	.	.	.
4BB-y	-to,	4F	più	4d	-to,	4d	più	8b-y	.	4f	più
.	.	.	.	.	.	.	.	8ccJ	.	.	.
2GG	più	2B-y	lie-	2r	.	2d	lie-	4dd	.	8gL	lie-
.	.	.	.	.	.	.	.	.	.	8a	.
.	.	.	.	.	.	.	.	4dd	più	8b-y	.
.	.	.	.	.	.	.	.	.	.	8ccJ	.
8BB-yL	lie-	4B-y	-to,	1r	.	2d	-to e	8dL	lie-	4dd	.
8C	.	.	.	.	.	.	.	8e	.	.	.
8D	.	4B-y	più	.	.	.	.	8f	.	4dd	-to,
8EJ	.	.	.	.	.	.	.	8gJ	.	.	.
4F	.	8AL	lie-	.	.	8cL	pron-	4a	.	2r	.
.	.	8B-y	.	.	.	8d	.	.	.	.	.
4C	-to,	8c	.	.	.	8e	.	4g	-to e	.	.
.	.	8dJ	.	.	.	8fJ	.	.	.	.	.
=29	=29	=29	=29	=29	=29	=29	=29	=29	=29	=29	=29
2C	più	1e	.	1G	più	2g	.	8cL	pron-	2r	.
.	.	.	.	.	.	.	.	8d	.	.	.
.	.	.	.	.	.	.	.	8e	.	.	.
.	.	.	.	.	.	.	.	8fJ	.	.	.
8CL	lie-	.	.	.	.	2G	-to,	4g	.	2g	più
8D	.	.	.	.	.	.	.	.	.	.	.
8E	.	.	.	.	.	.	.	4c	-to,	.	.
8FJ	.	.	.	.	.	.	.	.	.	.	.
2G	.	2d	-to,	4G	lie-	2B-y	più	2g	più	8gL	lie-
.	.	.	.	.	.	.	.	.	.	8a	.
.	.	.	.	4G	-to e	.	.	.	.	8b-y	.
.	.	.	.	.	.	.	.	.	.	8ccJ	.
4GG	-to,	2d	più	8DL	pron-	8B-yL	lie-	8gL	lie-	4dd	.
.	.	.	.	8E	.	8c	.	8a	.	.	.
4D	più	.	.	8F	.	8d	.	8b-y	.	4dd	-to e
.	.	.	.	8GJ	.	8eJ	.	8ccJ	.	.	.
=30	=30	=30	=30	=30	=30	=30	=30	=30	=30	=30	=30
2.D	lie-	8DL	lie-	2A	.	8fL	.	2dd	.	2dd	pron-
.	.	8E	.	.	.	8e	.	.	.	.	.
.	.	8F	.	.	.	8d	.	.	.	.	.
.	.	8GJ	.	.	.	8cJ	.	.	.	.	.
.	.	4A	.	2F	-to,	2d	.	2dd	-to e	2a	-to,
4D	-to e	4B-y	-to e	.	.	.	.	.	.	.	.
1C	pron-	2c	pron-	1G	pron-	2e	-to e	2g	pron-	1r	.
.	.	[2c	-to	.	.	2e	pron-	[2g	-to	.	.
=31	=31	=31	=31	=31	=31	=31	=31	=31	=31	=31	=31
1C	-to,	4c]	.	1G	-to,	4e	-to	4g]	.	0r	.
.	.	4c	Che	.	.	4e	Che	4g	Che	.	.
.	.	2.c	l'as-	.	.	2.e	l'as-	2.g	l'as-	.	.
1r	.	.	.	1r	.	.	.	.	.	.	.
.	.	4c	-se-	.	.	4e	-se-	4e	-se-	.	.
.	.	4F	-ta-	.	.	4c	-ta-	4f	-ta-	.	.
.	.	4c	-to	.	.	4c	-to	4g	-to	.	.
=32	=32	=32	=32	=32	=32	=32	=32	=32	=32	=32	=32
0r	.	2.F	cer-	0r	.	2.c	cer-	2.a	cer-	0r	.
.	.	4G	-vo a	.	.	4BnX	-vo a	4g	-vo a	.	.
.	.	4d	la	.	.	4Bni	la	4f	la	.	.
.	.	4c	fon-	.	.	4d	fon-	4e	fon-	.	.
.	.	8GL	-ta-	.	.	8B-XL	-ta-	8dL	-ta-	.	.
.	.	8AJ	.	.	.	8AJ	.	8cJ	.	.	.
.	.	4G	.	.	.	4B-y	.	4d	.	.	.
=33	=33	=33	=33	=33	=33	=33	=33	=33	=33	=33	=33
2F	V'an-	2A	-na,	2c	V'an-	4c	-na,	2c	-na,	2a	V'an-
.	.	.	.	.	.	4f	V'an-	.	.	.	.
4.G	-dre-	2r	.	4.B-y	-dre-	4.d	-dre-	2r	.	4.b-y	-dre-
8E	-sti	.	.	8B-y	-sti	8e	-sti	.	.	8g	-sti
4.F	tu,	1r	.	4.A	tu,	4.c	tu,	1r	.	4.a	tu,
8D	V'an-	.	.	8A	V'an-	8d	V'an-	.	.	8f	V'an-
4.E-X	-dre-	.	.	4.G	-dre-	4.B-y	-dre-	.	.	4.g	-dre-
8C	-sti	.	.	8G	-sti	8c	-sti	.	.	8e	-sti
=34	=34	=34	=34	=34	=34	=34	=34	=34	=34	=34	=34
2F	tu,	2r	.	2A	tu,	2c	tu,	2r	.	2f	tu,
2r	.	2C	V'an-	2r	.	2c	V'an-	2g	V'an-	2r	.
1r	.	4.F	-drei	1r	.	4.c	-drei	4.a	-drei	1r	.
.	.	8A	più	.	.	8c	più	8cc	più	.	.
.	.	4G	lie-	.	.	4d	lie-	4b-y	lie-	.	.
.	.	4G	-to e	.	.	4B-y	-to e	4g	-to e	.	.
=35	=35	=35	=35	=35	=35	=35	=35	=35	=35	=35	=35
2r	.	2F	pron-	2r	.	2c	pron-	2a	pron-	2r	.
4r	.	2F	-to,	4r	.	2c	-to,	2a	-to,	4r	.
4A	più	.	.	4c	più	.	.	.	.	4cc	più
4G	lie-	1r	.	4d	lie-	1r	.	1r	.	4b-y	lie-
4G	-to e	.	.	4B-y	-to e	.	.	.	.	4g	-to e
2F	pron-	.	.	2c	pron-	.	.	.	.	2a	pron-
=36	=36	=36	=36	=36	=36	=36	=36	=36	=36	=36	=36
2F	-to,	4r	.	2c	-to,	4r	.	4r	.	2a	-to,
.	.	4A	più	.	.	4c	più	4cc	più	.	.
2r	.	4G	lie-	2r	.	4d	lie-	4b-y	lie-	2r	.
.	.	4G	-to e	.	.	4B-y	-to e	4g	-to e	.	.
2r	.	2F	pron-	2r	.	2c	pron-	2a	pron-	2r	.
4r	.	4F	-to	4r	.	4c	-to	4a	-to	4r	.
4F	Che	4F	Che	4c	Che	4c	Che	4cc	Che	4a	Che
=37	=37	=37	=37	=37	=37	=37	=37	=37	=37	=37	=37
2.F	l'as-	2.A	l'as-	2.c	l'as-	2.f	l'as-	2.cc	l'as-	2.a	l'as-
4F	-se-	4F	-se-	4c	-se-	4f	-se-	4a	-se-	4cc	-se-
4BB-y	-ta-	4F	-ta-	4d	-ta-	4f	-ta-	4b-y	-ta-	4b-y	-ta-
4F	-to	4F	-to	4c	-to	4f	-to	4cc	-to	4a	-to
[2BB-y	cer-	[2F	cer-	[2B-y	cer-	[2f	cer-	[2dd	cer-	[2b-y	cer-
=38	=38	=38	=38	=38	=38	=38	=38	=38	=38	=38	=38
4BB-y]	.	4F]	.	4B-y]	.	4f]	.	4dd]	.	4b-y]	.
4F	-vo a	4A	-vo a	4c	-vo a	4f	-vo a	4cc	-vo a	4a	-vo a
4G	la	4B-y	la	4G	la	4B-y	la	4b-y	la	4d	la
4F	fon-	4F	fon-	4A	fon-	4c	fon-	4a	fon-	4f	fon-
8CL	-ta-	8GL	-ta-	8EL	-ta-	8cL	-ta-	8gL	-ta-	8eL	-ta-
8DJ	.	8DJ	.	8FJ	.	8AJ	.	8fJ	.	8dJ	.
4C	.	4G	.	4E	.	4c	.	4g	.	4e	.
4F	-na,	4A	-na,	4A	-na,	4c	-na,	4f	-na,	4f	-na,
4F	a	4A	a	4A	a	4f	a	4f	a	4cc	a
=39	=39	=39	=39	=39	=39	=39	=39	=39	=39	=39	=39
4G	la	4B-y	la	4G	la	4B-y	la	4d	la	4b-y	la
4F	fon-	4F	fon-	4A	fon-	4c	fon-	4f	fon-	4a	fon-
8CL	-ta-	8GL	-ta-	8EL	-ta-	8cL	-ta-	8eL	-ta-	8gL	-ta-
8DJ	.	8DJ	.	8FJ	.	8AJ	.	8dJ	.	8fJ	.
4C	.	4G	.	4E	.	4c	.	4e	.	4g	.
2F	-na,	2A	-na,	2A	-na,	2c	-na,	2f	-na,	2f	-na,
2F	a	2A	a	2A	a	2f	a	2cc	a	2f	a
=40	=40	=40	=40	=40	=40	=40	=40	=40	=40	=40	=40
2G	la	2B-y	la	2G	la	2B-y	la	2b-y	la	2d	la
1F	fon-	1F	fon-	1A	fon-	2c	fon-	1a	fon-	1f	fon-
.	.	.	.	.	.	[1c	-ta-	.	.	.	.
4C	-ta-	4G	-ta-	4E	-ta-	.	.	4g	-ta-	4e	-ta-
4FF	.	4A	.	4F	.	.	.	4f	.	4d	.
=41	=41	=41	=41	=41	=41	=41	=41	=41	=41	=41	=41
0C	.	0G	.	2.E	.	0c]	.	8gL	.	8eL	.
.	.	.	.	.	.	.	.	8f	.	8d	.
.	.	.	.	.	.	.	.	8e	.	8c	.
.	.	.	.	.	.	.	.	8dJ	.	8dJ	.
.	.	.	.	.	.	.	.	8cL	.	8eL	.
.	.	.	.	.	.	.	.	8d	.	8f	.
.	.	.	.	4D	.	.	.	8e	.	8g	.
.	.	.	.	.	.	.	.	8fJ	.	8fJ	.
.	.	.	.	1C	.	.	.	4g	.	4e	.
.	.	.	.	.	.	.	.	4a	.	2f	.
.	.	.	.	.	.	.	.	2g	.	.	.
.	.	.	.	.	.	.	.	.	.	4e	.
=42	=42	=42	=42	=42	=42	=42	=42	=42	=42	=42	=42
0FFl	-na.	0Al	-na.	0Cl	-na.	0cl	-na.	0fl	-na.	0fl	-na.
==	==	==	==	==	==	==	==	==	==	==	==
*-	*-	*-	*-	*-	*-	*-	*-	*-	*-	*-	*-
!!!system-decoration: [*]
!!!RDF**kern: i = editorial accidental
!!!RDF**kern: l = terminal long
!!!ENC: Emiliano Ricciardi
!!!END: 2018
!!!EED: Coluzzi, Seth
!!!EEV: 2018/10/28
!!!YEC: Copyright 2018 Emiliano Ricciardi, All Rights Reserved
!!!ONB: Translated from MusicXML on 2018/10/28
!!@@BEGIN:	VERSEDATA
!!@CATALOGNUM:	Tam2031052
!!@LAST_MODIFIED: 2020/07/12
!!@ACT:     II
!!@SCENE:   3
!!@VERSE:   1052
!!@TITLE:   Qual ardir mi bisogna, e 'incontra a cui?
!!@MANUSRC:	A-Am, A-Au, A-Br, A-CM, A-F, A-Ub
!!@PRINTSRC:	A-1580D, A-1580M, A-1581B, A-1581B<sub>bis</sub>, A-1581M, A-1581M<sub>bis</sub>, A-1581O, A-1581V, A-1582B, A-1583M, A-1583V, A-1584A, A-1585C, A-1585V, A-1585V<sub>bis</sub>, A-1588B, A-1589M, A-1589V, A-1590Mb, A-1590Mv, A-1591M, A-1591W, A-1592B, A-1596B, A-1596M, A-1599Bf, A-1599Bp, A-1600R, A-1601Bf, A-1601Bp, A-1602B, A-1603Bf, A-1603Bv, A-1603Z, A-1605R, A-1606Z, A-1608D, A-1608DP, A-1609Bf, A-1609Bv, A-1609Z, A-1611D, A-1614GT, A-1617D, A-1618B, A-1619D, A-1619I, A-1620V, A-1622D, A-1623A, A-1624M, A-1624S, A-1624T, A-1625U, A-1628U, A-1632D, A-1634R
!!@@BEGIN:	VERSES
!!@ABOUTIT:	
!!@ABOUTEN:	
!!@EDITOR:	Solerti, Angelo
!!@EDITION_TITLE: Opere minori in versi di Torquato Tasso. Edizione critica sugli autografi e sulle antiche stampe.
!!@EDITION_LOC:	Bologna
!!@EDITION_PUB:	Zanichelli
!!@EDITION_DATE:  1895
!!@EDITION_VOL:	3
!!@EDITION_PAGE:
!!@TRANSLATOR:	Emiliano Ricciardi and Amyrose McCue Gill
!!@VERSE:	
!!	AMINTA: Qual ardir mi bisogna, e 'ncontra a cui?
!!	TIRSI: Se la tua donna fosse in mezzo un bosco
!!	Che, cinto intorno d'altissime rupi,
!!	Desse albergo alle tigri et a' leoni,
!!	V'andresti tu?
!!	AMINTA: V'andrei sicuro e baldo
!!	Più che di festa villanella al ballo.
!!	TIRSI: E s'ella fosse tra ladroni et armi,
!!	V'andresti tu?
!!	AMINTA: V'andrei più lieto e pronto
!!	Che l'assetato cervo a la fontana.
!!@TVERSE:
!!	AMINTA: What daring do I need, and against whom?
!!	THYRSIS: If your lady were in the middle of a wood
!!	That, surrounded by the highest cliffs,
!!	Gave a home to tigers and to lions,
!!	Would you go there?
!!	AMINTA: I would go there more certain and bold
!!	Than [would go] a peasant girl to a festive dance.
!!	THYRSIS: And if she were among thieves and arms,
!!	Would you go there?
!!	AMINTA: I would go there more happy and prompt
!!	Than [would] a thirsty deer to the fount.
!!@@END:		VERSES
!!@NEW_CRIT_ED:   Torquato Tasso, <i>Aminta. "Princeps."</i>, ed. Matteo Navone, vol. 9 of Commissione Nazionale per l'Edizione delle opere del Tasso. Studi e Testi (Alessandria: Edizioni dell'Orso, 2014).
!!@ATTRIBUTION_ABOUT:	
!!@DATING:	1573
!!@DEDICATEE:	
!!@COMMENTARY:
!!@@END:		VERSEDATA
!!@@BEGIN: SETTING
!!@CATALOGNUM:	Tam2031052a
!!@ACT:		II
!!@SCENE:		3
!!@VERSE:		1052
!!@TITLE:		Qual ardir mi bisogna, e 'ncotra a cui?
!!@COMPOSER:	Balsamino, Simone
!!@PRINCEPSTITLE:	Novellette a sei voci
!!@PRINCEPSLOC:	Venice
!!@NORMLOC:	Venice
!!@NORMPUB:	Amadino
!!@NORMPUBSHORT:	Amadino
!!@PRINCEPSPUB:	Amadino
!!@PRINCEPSYEAR:	1594
!!@PRINCEPSRISM:	B 785
!!@OVOICES:	6
!!@EXTANTVOICES:	6
!!@OMENSURATION:	C
!!@OCLEFS:	C1,C1,C3,C4,C4,F4
!!@OTIME:		
!!@OKEYSIG:	b-
!!@FINAL:		(F)F
!!@TIMPEDITOR:	Coluzzi, Seth
!!@PARTS:		1 of 1
!!@REPRINTS:	
!!@@END: SETTING
